packages/ui-icons/svg/Line/check-plus.svg

<svg viewBox="0 0 1920 1920" version="1.1" xmlns="http://www.w3.org/2000/svg">
    <path d="M1709.28872,959.672847 L1709.28872,1814.27733 L341.807607,1814.27733 L341.807607,1016.53253 L455.754871,1016.53253 L455.754871,1700.33006 L1595.34146,1700.33006 L1595.34146,959.672847 L1709.28872,959.672847 Z M1840.35086,434.569671 L1920,516.155912 L1122.36915,1295.78309 L757.851857,939.242102 L837.500994,857.883756 L1122.36915,1136.37087 L1840.35086,434.569671 Z M455.789055,105 L455.789055,446.955739 L797.744794,446.955739 L797.744794,560.903002 L455.789055,560.903002 L455.789055,902.630846 L341.841791,902.630846 L341.841791,560.903002 L-5.68434189e-14,560.903002 L-5.68434189e-14,446.955739 L341.841791,446.955739 L341.841791,105 L455.789055,105 Z M1538.32225,446.875976 L1538.32225,560.823239 L911.612294,560.823239 L911.612294,446.875976 L1538.32225,446.875976 Z" stroke="none" stroke-width="1" fill-rule="evenodd"/>
</svg>

<svg viewBox="0 0 1920 1920" xmlns="http://www.w3.org/2000/svg">
    <path d="M1709.289 959.673v854.604H341.808v-797.744h113.947v683.797H1595.34V959.673h113.948ZM1840.35 434.57l79.65 81.586-797.63 779.627-364.518-356.54 79.649-81.36 284.868 278.488 717.982-701.801ZM455.789 105v341.956h341.956v113.947H455.789v341.728H341.842V560.903H0V446.956h341.842V105h113.947Zm1082.533 341.876v113.947h-626.71V446.876h626.71Z" fill-rule="evenodd"/>
</svg>
